icons/svg/seamark_big/topmark_vertical_black_rhombus_big.svg

<svg width="1060" height="1060" fill="none" version="1.1" viewBox="0 0 1060 1060" xmlns="http://www.w3.org/2000/svg">
 <path d="m529.1 55.142c-5.796 0.1195-11.511 2.5706-15.593 6.6875l-76.657 77.5c-4.161 4.206-6.567 10.099-6.538 16.017 0.029 5.917 2.492 11.786 6.695 15.952l57.687 57.062v285c-2e-3 5.924 2.436 11.812 6.624 16.001 4.189 4.189 10.077 6.627 16.001 6.624h25c5.924 2e-3 11.812-2.435 16.001-6.624s6.627-10.077 6.624-16.001v-284.19l58.219-58.875c4.158-4.211 6.557-10.106 6.523-16.023-0.035-5.918-2.504-11.784-6.711-15.946l-77.5-76.656c-4.291-4.2448-10.339-6.657-16.375-6.5312z" fill="#ACD8F3" opacity=".42609"/>
 <path d="m529.99 513.39v-383.74" stroke="black" stroke-width="25"/>
 <path d="m528.43 73.434 80.946 81.135-77.804 77.729-80.946-81.134z" fill="#000000"/>
</svg>

<svg width="1060" height="1060" viewBox="0 0 1060 1060" fill="none" xmlns="http://www.w3.org/2000/svg">
<path opacity="0.426087" d="M529.101 55.1424C523.305 55.2619 517.59 57.713 513.508 61.8299L436.851 139.33C432.69 143.536 430.284 149.429 430.313 155.347C430.342 161.264 432.805 167.133 437.008 171.299L494.695 228.361V513.361C494.693 519.285 497.131 525.173 501.319 529.362C505.508 533.551 511.396 535.989 517.32 535.986H542.32C548.244 535.988 554.132 533.551 558.321 529.362C562.51 525.173 564.948 519.285 564.945 513.361V229.174L623.164 170.299C627.322 166.088 629.721 160.193 629.687 154.276C629.652 148.358 627.183 142.492 622.976 138.33L545.476 61.6736C541.185 57.4288 535.137 55.0166 529.101 55.1424V55.1424Z" fill="#ACD8F3"/>
<path d="M529.992 513.392V129.653" stroke="black" stroke-width="25"/>
</svg>
